Newaita-dark/apps/64/kipi-logo.svg

<?xml version="1.0" encoding="UTF-8"?>
<svg xmlns="http://www.w3.org/2000/svg" xmlns:xlink="http://www.w3.org/1999/xlink" width="64pt" height="64pt" viewBox="0 0 64 64" version="1.1">
<defs>
<radialGradient id="radial0" gradientUnits="userSpaceOnUse" cx="450.908936" cy="189.579361" fx="450.908936" fy="189.579361" r="21.166656" gradientTransform="matrix(0.000000348341,-0.156265,-0.281277,-0.000000203077,89.046304,127.190659)">
<stop offset="0" style="stop-color:rgb(0%,0%,0%);stop-opacity:0.313725;"/>
<stop offset="0.222222" style="stop-color:rgb(0%,0%,0%);stop-opacity:0.27451;"/>
<stop offset="1" style="stop-color:rgb(0%,0%,0%);stop-opacity:0;"/>
</radialGradient>
<radialGradient id="radial1" gradientUnits="userSpaceOnUse" cx="450.908936" cy="189.579361" fx="450.908936" fy="189.579361" r="21.166656" gradientTransform="matrix(-0.000000348341,0.156265,0.281277,0.000000203077,-25.540237,-15.054964)">
<stop offset="0" style="stop-color:rgb(0%,0%,0%);stop-opacity:0.313725;"/>
<stop offset="0.222222" style="stop-color:rgb(0%,0%,0%);stop-opacity:0.27451;"/>
<stop offset="1" style="stop-color:rgb(0%,0%,0%);stop-opacity:0;"/>
</radialGradient>
<radialGradient id="radial2" gradientUnits="userSpaceOnUse" cx="450.908936" cy="189.579361" fx="450.908936" fy="189.579361" r="21.166656" gradientTransform="matrix(-0.000000348341,-0.156265,0.281277,-0.000000203077,-25.540237,127.190659)">
<stop offset="0" style="stop-color:rgb(0%,0%,0%);stop-opacity:0.313725;"/>
<stop offset="0.222222" style="stop-color:rgb(0%,0%,0%);stop-opacity:0.27451;"/>
<stop offset="1" style="stop-color:rgb(0%,0%,0%);stop-opacity:0;"/>
</radialGradient>
<radialGradient id="radial3" gradientUnits="userSpaceOnUse" cx="450.908936" cy="189.579361" fx="450.908936" fy="189.579361" r="21.166656" gradientTransform="matrix(0.000000348341,0.156265,-0.281277,0.000000203077,89.0463,-15.054965)">
<stop offset="0" style="stop-color:rgb(0%,0%,0%);stop-opacity:0.313725;"/>
<stop offset="0.222222" style="stop-color:rgb(0%,0%,0%);stop-opacity:0.27451;"/>
<stop offset="1" style="stop-color:rgb(0%,0%,0%);stop-opacity:0;"/>
</radialGradient>
<linearGradient id="linear0" gradientUnits="userSpaceOnUse" x1="255.323059" y1="233.5" x2="255.323044" y2="254.666656" gradientTransform="matrix(0.0267201,0,0,0.125012,24.930772,26.877567)">
<stop offset="0" style="stop-color:rgb(0%,0%,0%);stop-opacity:0.27451;"/>
<stop offset="1" style="stop-color:rgb(0%,0%,0%);stop-opacity:0;"/>
</linearGradient>
<linearGradient id="linear1" gradientUnits="userSpaceOnUse" x1="254" y1="-168.666672" x2="254" y2="233.5" gradientTransform="matrix(0.125012,0,0,0.125012,0,26.877566)">
<stop offset="0" style="stop-color:rgb(69.019608%,74.509804%,77.254902%);stop-opacity:1;"/>
<stop offset="1" style="stop-color:rgb(47.058824%,56.470588%,61.176471%);stop-opacity:1;"/>
</linearGradient>
<linearGradient id="linear2" gradientUnits="userSpaceOnUse" x1="243.416672" y1="-147.5" x2="243.416672" y2="-62.833332" gradientTransform="matrix(1,0,0,1,-0.0000336784,0)">
<stop offset="0" style="stop-color:rgb(93.72549%,32.54902%,31.372549%);stop-opacity:1;"/>
<stop offset="1" style="stop-color:rgb(89.803922%,45.098039%,45.098039%);stop-opacity:1;"/>
</linearGradient>
<linearGradient id="linear3" gradientUnits="userSpaceOnUse" x1="243.416656" y1="-147.5" x2="243.416656" y2="-62.833336" gradientTransform="matrix(1,0,0,1,116.416672,74.083336)">
<stop offset="0" style="stop-color:rgb(14.901961%,65.098039%,60.392157%);stop-opacity:1;"/>
<stop offset="1" style="stop-color:rgb(30.196078%,71.372549%,67.45098%);stop-opacity:1;"/>
</linearGradient>
<linearGradient id="linear4" gradientUnits="userSpaceOnUse" x1="264.583344" y1="-147.5" x2="264.583344" y2="-62.833336" gradientTransform="matrix(1,0,0,1,-116.416672,74.083336)">
<stop offset="0" style="stop-color:rgb(25.882353%,64.705882%,96.078431%);stop-opacity:1;"/>
<stop offset="1" style="stop-color:rgb(39.215686%,70.980392%,96.470588%);stop-opacity:1;"/>
</linearGradient>
<linearGradient id="linear5" gradientUnits="userSpaceOnUse" x1="275.166687" y1="-147.5" x2="275.166687" y2="-62.833328" gradientTransform="matrix(1,0,0,1,-116.416679,201.083328)">
<stop offset="0" style="stop-color:rgb(100%,79.215686%,15.686275%);stop-opacity:1;"/>
<stop offset="1" style="stop-color:rgb(100%,83.529412%,30.980392%);stop-opacity:1;"/>
</linearGradient>
</defs>
<g id="surface1">
<path style=" stroke:none;fill-rule:nonzero;fill:url(#radial0);" d="M 36.382812 56.066406 L 41.675781 56.066406 L 41.675781 53.421875 L 36.382812 53.421875 Z M 36.382812 56.066406 "/>
<path style=" stroke:none;fill-rule:nonzero;fill:url(#radial1);" d="M 27.121094 56.066406 L 21.832031 56.066406 L 21.832031 58.714844 L 27.121094 58.714844 Z M 27.121094 56.066406 "/>
<path style=" stroke:none;fill-rule:nonzero;fill:url(#radial2);" d="M 27.121094 56.066406 L 21.832031 56.066406 L 21.832031 53.421875 L 27.121094 53.421875 Z M 27.121094 56.066406 "/>
<path style=" stroke:none;fill-rule:nonzero;fill:url(#radial3);" d="M 36.382812 56.066406 L 41.675781 56.066406 L 41.675781 58.714844 L 36.382812 58.714844 Z M 36.382812 56.066406 "/>
<path style=" stroke:none;fill-rule:nonzero;fill:url(#linear0);" d="M 27.121094 55.40625 L 36.382812 55.40625 L 36.382812 58.714844 L 27.121094 58.714844 Z M 27.121094 55.40625 "/>
<path style=" stroke:none;fill-rule:nonzero;fill:url(#linear1);" d="M 31.753906 5.792969 C 17.828125 5.792969 6.613281 17.003906 6.613281 30.929688 C 6.613281 44.855469 17.828125 56.066406 31.753906 56.066406 C 33.746094 56.066406 35.683594 55.835938 37.542969 55.402344 C 44.984375 53.421875 27.785156 40.191406 38.367188 37.546875 C 48.953125 34.898438 56.890625 38.867188 56.890625 30.929688 C 56.890625 17.003906 45.679688 5.792969 31.753906 5.792969 Z M 31.753906 5.792969 "/>
<path style=" stroke:none;fill-rule:nonzero;fill:rgb(100%,100%,100%);fill-opacity:0.392157;" d="M 31.753906 5.792969 C 17.828125 5.792969 6.613281 17.003906 6.613281 30.929688 C 6.613281 31.039062 6.617188 31.152344 6.617188 31.261719 C 6.792969 17.488281 17.9375 6.453125 31.753906 6.453125 C 45.546875 6.453125 56.675781 17.453125 56.886719 31.195312 C 56.890625 31.109375 56.890625 31.019531 56.890625 30.929688 C 56.890625 17.003906 45.679688 5.792969 31.753906 5.792969 Z M 34.832031 41.492188 C 34.554688 45.058594 39.128906 50.335938 39.457031 53.539062 C 39.796875 50.621094 35.109375 45.296875 34.832031 41.492188 Z M 34.832031 41.492188 "/>
<path style=" stroke:none;fill-rule:nonzero;fill:rgb(0%,0%,0%);fill-opacity:0.235294;" d="M 56.886719 30.585938 C 56.738281 38.226562 48.851562 34.359375 38.367188 36.980469 C 35.582031 37.675781 34.722656 39.105469 34.828125 40.871094 C 34.933594 39.367188 35.886719 38.164062 38.367188 37.546875 C 48.953125 34.898438 56.890625 38.867188 56.890625 30.929688 C 56.890625 30.816406 56.890625 30.703125 56.886719 30.585938 Z M 6.617188 30.648438 C 6.617188 30.742188 6.613281 30.835938 6.613281 30.929688 C 6.613281 44.855469 17.828125 56.066406 31.753906 56.066406 C 33.746094 56.066406 35.683594 55.835938 37.542969 55.402344 C 39.078125 54.996094 39.5625 54.105469 39.460938 52.933594 C 39.371094 53.824219 38.820312 54.496094 37.542969 54.835938 C 35.683594 55.273438 33.746094 55.503906 31.753906 55.503906 C 17.921875 55.503906 6.769531 44.441406 6.617188 30.648438 Z M 6.617188 30.648438 "/>
<path style=" stroke:none;fill-rule:nonzero;fill:rgb(12.941177%,12.941177%,12.941177%);fill-opacity:1;" d="M 31.753906 5.605469 C 17.726562 5.605469 6.425781 16.902344 6.425781 30.929688 C 6.425781 44.957031 17.726562 56.253906 31.753906 56.253906 C 33.761719 56.253906 35.714844 56.023438 37.585938 55.585938 L 37.589844 55.585938 C 38.554688 55.328125 39.160156 54.871094 39.449219 54.253906 C 39.738281 53.640625 39.710938 52.90625 39.503906 52.101562 C 39.089844 50.496094 37.964844 48.574219 36.941406 46.636719 C 35.921875 44.699219 35.015625 42.746094 35.007812 41.171875 C 35.003906 40.386719 35.214844 39.699219 35.738281 39.117188 C 36.261719 38.535156 37.113281 38.050781 38.414062 37.726562 C 43.671875 36.410156 48.28125 36.742188 51.617188 36.410156 C 53.285156 36.242188 54.648438 35.910156 55.609375 35.082031 C 56.566406 34.253906 57.078125 32.945312 57.078125 30.929688 C 57.078125 16.902344 45.78125 5.605469 31.753906 5.605469 Z M 31.753906 5.980469 C 45.578125 5.980469 56.703125 17.105469 56.703125 30.929688 C 56.703125 32.882812 56.222656 34.054688 55.363281 34.796875 C 54.5 35.542969 53.21875 35.871094 51.578125 36.035156 C 48.300781 36.363281 43.648438 36.03125 38.324219 37.363281 C 36.976562 37.699219 36.050781 38.210938 35.460938 38.867188 C 34.871094 39.519531 34.628906 40.316406 34.632812 41.175781 C 34.640625 42.886719 35.585938 44.863281 36.609375 46.8125 C 37.636719 48.757812 38.75 50.679688 39.140625 52.195312 C 39.335938 52.953125 39.347656 53.597656 39.109375 54.09375 C 38.875 54.59375 38.390625 54.984375 37.496094 55.222656 C 35.652344 55.652344 33.730469 55.878906 31.753906 55.878906 C 17.925781 55.878906 6.804688 44.753906 6.804688 30.929688 C 6.804688 17.105469 17.925781 5.980469 31.753906 5.980469 Z M 31.753906 5.980469 "/>
<path style="fill-rule:nonzero;fill:url(#linear2);stroke-width:3;stroke-linecap:square;stroke-linejoin:round;stroke:rgb(12.941177%,12.941177%,12.941177%);stroke-opacity:1;stroke-miterlimit:4;" d="M 254.006994 -147.506445 C 277.379762 -147.506445 296.3467 -128.539507 296.3467 -105.166739 C 296.3467 -81.793971 277.379762 -62.827032 254.006994 -62.827032 C 230.634226 -62.827032 211.667287 -81.793971 211.667287 -105.166739 C 211.667287 -128.539507 230.634226 -147.506445 254.006994 -147.506445 Z M 254.006994 -147.506445 " transform="matrix(0.125012,0,0,0.125012,0,26.877566)"/>
<path style="fill-rule:nonzero;fill:url(#linear3);stroke-width:3;stroke-linecap:square;stroke-linejoin:round;stroke:rgb(12.941177%,12.941177%,12.941177%);stroke-opacity:1;stroke-miterlimit:4;" d="M 370.402128 -73.41977 C 393.806143 -73.41977 412.741835 -54.452831 412.741835 -31.080063 C 412.741835 -7.707295 393.806143 11.259643 370.402128 11.259643 C 347.02936 11.259643 328.093669 -7.707295 328.093669 -31.080063 C 328.093669 -54.452831 347.02936 -73.41977 370.402128 -73.41977 Z M 370.402128 -73.41977 " transform="matrix(0.125012,0,0,0.125012,0,26.877566)"/>
<path style="fill-rule:nonzero;fill:url(#linear4);stroke-width:3;stroke-linecap:square;stroke-linejoin:round;stroke:rgb(12.941177%,12.941177%,12.941177%);stroke-opacity:1;stroke-miterlimit:4;" d="M 137.580612 -73.41977 C 160.95338 -73.41977 179.920318 -54.452831 179.920318 -31.080063 C 179.920318 -7.707295 160.95338 11.259643 137.580612 11.259643 C 114.207844 11.259643 95.240905 -7.707295 95.240905 -31.080063 C 95.240905 -54.452831 114.207844 -73.41977 137.580612 -73.41977 Z M 137.580612 -73.41977 " transform="matrix(0.125012,0,0,0.125012,0,26.877566)"/>
<path style="fill-rule:nonzero;fill:url(#linear5);stroke-width:3;stroke-linecap:square;stroke-linejoin:round;stroke:rgb(12.941177%,12.941177%,12.941177%);stroke-opacity:1;stroke-miterlimit:4;" d="M 137.580612 53.568103 C 160.95338 53.568103 179.920318 72.535042 179.920318 95.90781 C 179.920318 119.311825 160.95338 138.247517 137.580612 138.247517 C 114.207844 138.247517 95.240905 119.311825 95.240905 95.90781 C 95.240905 72.535042 114.207844 53.568103 137.580612 53.568103 Z M 137.580612 53.568103 " transform="matrix(0.125012,0,0,0.125012,0,26.877566)"/>
</g>
</svg>

<svg xmlns="http://www.w3.org/2000/svg" width="64pt" height="64pt" viewBox="0 0 64 64"><defs><radialGradient id="a" gradientUnits="userSpaceOnUse" cx="450.909" cy="189.579" fx="450.909" fy="189.579" r="21.167" gradientTransform="matrix(0 -.15626 -.28128 0 89.046 127.19)"><stop offset="0" stop-opacity=".314"/><stop offset=".222" stop-opacity=".275"/><stop offset="1" stop-opacity="0"/></radialGradient><radialGradient id="b" gradientUnits="userSpaceOnUse" cx="450.909" cy="189.579" fx="450.909" fy="189.579" r="21.167" gradientTransform="matrix(0 .15626 .28128 0 -25.54 -15.055)"><stop offset="0" stop-opacity=".314"/><stop offset=".222" stop-opacity=".275"/><stop offset="1" stop-opacity="0"/></radialGradient><radialGradient id="c" gradientUnits="userSpaceOnUse" cx="450.909" cy="189.579" fx="450.909" fy="189.579" r="21.167" gradientTransform="matrix(0 -.15626 .28128 0 -25.54 127.19)"><stop offset="0" stop-opacity=".314"/><stop offset=".222" stop-opacity=".275"/><stop offset="1" stop-opacity="0"/></radialGradient><radialGradient id="d" gradientUnits="userSpaceOnUse" cx="450.909" cy="189.579" fx="450.909" fy="189.579" r="21.167" gradientTransform="matrix(0 .15626 -.28128 0 89.046 -15.055)"><stop offset="0" stop-opacity=".314"/><stop offset=".222" stop-opacity=".275"/><stop offset="1" stop-opacity="0"/></radialGradient><linearGradient id="e" gradientUnits="userSpaceOnUse" x1="255.323" y1="233.5" x2="255.323" y2="254.667" gradientTransform="matrix(.02672 0 0 .12501 24.93 26.878)"><stop offset="0" stop-opacity=".275"/><stop offset="1" stop-opacity="0"/></linearGradient><linearGradient id="f" gradientUnits="userSpaceOnUse" x1="254" y1="-168.667" x2="254" y2="233.5" gradientTransform="translate(0 26.878) scale(.12501)"><stop offset="0" stop-color="#b0bec5"/><stop offset="1" stop-color="#78909c"/></linearGradient><linearGradient id="g" gradientUnits="userSpaceOnUse" x1="243.417" y1="-147.5" x2="243.417" y2="-62.833"><stop offset="0" stop-color="#ef5350"/><stop offset="1" stop-color="#e57373"/></linearGradient><linearGradient id="h" gradientUnits="userSpaceOnUse" x1="243.417" y1="-147.5" x2="243.417" y2="-62.833" gradientTransform="translate(116.417 74.083)"><stop offset="0" stop-color="#26a69a"/><stop offset="1" stop-color="#4db6ac"/></linearGradient><linearGradient id="i" gradientUnits="userSpaceOnUse" x1="264.583" y1="-147.5" x2="264.583" y2="-62.833" gradientTransform="translate(-116.417 74.083)"><stop offset="0" stop-color="#42a5f5"/><stop offset="1" stop-color="#64b5f6"/></linearGradient><linearGradient id="j" gradientUnits="userSpaceOnUse" x1="275.167" y1="-147.5" x2="275.167" y2="-62.833" gradientTransform="translate(-116.417 201.083)"><stop offset="0" stop-color="#ffca28"/><stop offset="1" stop-color="#ffd54f"/></linearGradient></defs><path d="M36.383 56.066h5.293v-2.644h-5.293zm0 0" fill="url(#a)"/><path d="M27.121 56.066h-5.289v2.649h5.29zm0 0" fill="url(#b)"/><path d="M27.121 56.066h-5.289v-2.644h5.29zm0 0" fill="url(#c)"/><path d="M36.383 56.066h5.293v2.649h-5.293zm0 0" fill="url(#d)"/><path d="M27.121 55.406h9.262v3.309H27.12zm0 0" fill="url(#e)"/><path d="M31.754 5.793A25.085 25.085 0 0 0 6.614 30.93a25.085 25.085 0 0 0 25.14 25.136c1.992 0 3.93-.23 5.789-.664 7.441-1.98-9.758-15.21.824-17.855 10.586-2.649 18.524 1.32 18.524-6.617A25.082 25.082 0 0 0 31.754 5.793zm0 0" fill="url(#f)"/><path d="M31.754 5.793A25.085 25.085 0 0 0 6.614 30.93l.003.332A25.083 25.083 0 0 1 31.754 6.453c13.793 0 24.922 11 25.133 24.742.004-.086.004-.175.004-.265A25.082 25.082 0 0 0 31.754 5.793zm3.078 35.7c-.277 3.566 4.297 8.843 4.625 12.046.34-2.918-4.348-8.242-4.625-12.047zm0 0" fill="#fff" fill-opacity=".392"/><path d="M56.887 30.586c-.149 7.64-8.035 3.773-18.52 6.394-2.785.696-3.644 2.125-3.539 3.891.106-1.504 1.059-2.707 3.54-3.324 10.585-2.649 18.523 1.32 18.523-6.617 0-.114 0-.227-.004-.344zm-50.27.062c0 .094-.004.188-.004.282a25.085 25.085 0 0 0 25.14 25.136c1.993 0 3.93-.23 5.79-.664 1.535-.406 2.02-1.297 1.918-2.468-.09.89-.64 1.562-1.918 1.902-1.86.437-3.797.668-5.79.668A25.085 25.085 0 0 1 6.618 30.648zm0 0" fill-opacity=".235"/><path d="M31.754 5.605c-14.027 0-25.328 11.297-25.328 25.325 0 14.027 11.3 25.324 25.328 25.324 2.008 0 3.96-.23 5.832-.668h.004c.965-.258 1.57-.715 1.86-1.332.288-.613.26-1.348.054-2.152-.414-1.606-1.54-3.528-2.563-5.465-1.02-1.938-1.925-3.89-1.933-5.465-.004-.785.207-1.473.73-2.055.524-.582 1.375-1.066 2.676-1.39 5.258-1.317 9.867-.985 13.203-1.317 1.668-.168 3.031-.5 3.992-1.328.957-.828 1.47-2.137 1.47-4.152A25.272 25.272 0 0 0 31.753 5.605zm0 .375a24.892 24.892 0 0 1 24.95 24.95c0 1.953-.481 3.125-1.34 3.867-.864.746-2.145 1.074-3.786 1.238-3.277.328-7.93-.004-13.254 1.328-1.347.336-2.273.848-2.863 1.504-.59.653-.832 1.45-.828 2.309.008 1.71.953 3.687 1.976 5.636 1.028 1.946 2.141 3.868 2.532 5.383.195.758.207 1.403-.032 1.899-.234.5-.718.89-1.613 1.129-1.844.43-3.766.656-5.742.656a24.89 24.89 0 0 1-24.95-24.95A24.89 24.89 0 0 1 31.755 5.98zm0 0" fill="#212121"/><path d="M254.007-147.506c23.373 0 42.34 18.966 42.34 42.34 0 23.372-18.967 42.339-42.34 42.339-23.373 0-42.34-18.967-42.34-42.34 0-23.373 18.967-42.34 42.34-42.34zm0 0" transform="translate(0 26.878) scale(.12501)" fill="url(#g)" stroke-width="3" stroke-linecap="square" stroke-linejoin="round" stroke="#212121"/><path d="M370.402-73.42c23.404 0 42.34 18.967 42.34 42.34 0 23.373-18.936 42.34-42.34 42.34-23.373 0-42.308-18.967-42.308-42.34 0-23.373 18.935-42.34 42.308-42.34zm0 0" transform="translate(0 26.878) scale(.12501)" fill="url(#h)" stroke-width="3" stroke-linecap="square" stroke-linejoin="round" stroke="#212121"/><path d="M137.58-73.42c23.373 0 42.34 18.967 42.34 42.34 0 23.373-18.967 42.34-42.34 42.34-23.372 0-42.34-18.967-42.34-42.34 0-23.373 18.968-42.34 42.34-42.34zm0 0" transform="translate(0 26.878) scale(.12501)" fill="url(#i)" stroke-width="3" stroke-linecap="square" stroke-linejoin="round" stroke="#212121"/><path d="M137.58 53.568c23.373 0 42.34 18.967 42.34 42.34 0 23.404-18.967 42.34-42.34 42.34-23.372 0-42.34-18.936-42.34-42.34 0-23.373 18.968-42.34 42.34-42.34zm0 0" transform="translate(0 26.878) scale(.12501)" fill="url(#j)" stroke-width="3" stroke-linecap="square" stroke-linejoin="round" stroke="#212121"/></svg>
